X:1
B:Patterson, D W, 1979, The Shaker Spiritual, Princeton University Press, New Jersey
Z:Daniel W Patterson
F:http://www.folkinfo.org/songs
T:Shaker Solemn Song 12
Q:1/4=96     %Tempo
M:4/4     %Meter
L:1/8     %
K:Bb
e4 c3 B |GF E2 F2 GB |[M:3/4][L:1/8]c4 B2 |[M:4/4][L:1/8] c2 ef g4 |
M:3/4     %Meter
L:1/8     %
f2 ec B2 |c4 |:B2 |[M:4/4][L:1/8] c2 ef g4 |[M:3/4][L:1/8]f2 ec B2 |
M:4/4     %Meter
L:1/8     %
{B}e2 d2 c3 B |GF E2 F2 G/A/B |[M:3/4][L:1/8]c4 :|
W:
